src/topics/icons/sentry.svg

<svg height="230" preserveAspectRatio="xMidYMid" viewBox="0 0 256 230" width="256" xmlns="http://www.w3.org/2000/svg"><path d="m251.220287 187.855608c5.784484 10.045602 6.344969 20.608572 1.537739 28.958349-4.800044 8.356963-14.191746 13.142635-25.7679 13.142635h-21.815768c.258684-4.067103.431142-8.170134.431142-12.301909 0-4.627587-.215572-9.197688-.531742-13.753419l14.349831-.014371c3.528177 0 6.380898-2.867093 6.380898-6.402453 0-1.106598-.280243-2.134152-.76887-3.053921l-91.459518-158.9691171c-1.08504-1.9329519-3.161706-3.2407482-5.540171-3.2407482-2.313793 0-4.34016 1.2359394-5.461128 3.0898486l-14.522288 25.2433444c44.134535 33.269765 73.804268 84.8127503 77.864185 143.3330463.31617 4.548545.531741 9.118646.531741 13.753419 0 4.131774-.172457 8.22762-.423956 12.301908h-71.24616c.388027-4.052731.610784-8.148577.610784-12.301908 0-4.649144-.273056-9.233618-.776055-13.753419-3.52099-32.206282-19.2864035-60.747861-42.5033821-80.889362l-10.0024866 17.375009c17.5402801 16.325897 29.5116469 38.558436 32.7667665 63.514353.5892269 4.50543.9197688 9.089903.9197688 13.753419 0 4.153331-.2730563 8.263549-.7401265 12.301908h-66.0437171c-11.5761538 0-20.9678563-4.792857-25.76790015-13.14982-4.80722955-8.349777-4.24674539-18.905562 1.5377386-28.958349l13.55940525-23.238535c7.7749214 4.174888 14.7594163 9.614459 20.716357 16.052841l-8.0839062 13.76779c-.4814415.912583-.7688692 1.947323-.7688692 3.053921 0 3.535362 2.8527206 6.395268 6.3808965 6.395268l32.0338256.014371c-2.6874497-15.355828-9.7725443-29.209848-19.9187448-40.182403-5.9784977-6.445568-12.9629927-11.89951-20.737914-16.074399l35.7703867-62.1490702c7.616836 4.2611168 14.8240875 9.147389 21.5642688 14.6228882 30.8266289 25.013402 51.6435859 61.955057 55.4160749 103.775798h19.171433c-3.909017-48.891464-28.476907-92.005631-64.9371203-120.5472088-6.8335953-5.3461567-14.0695896-10.1893147-21.6720543-14.4576171l30.5320156-53.0447961c5.777298-10.0527864 14.615703-15.822899 24.230161-15.822899 9.607274 0 18.438492 5.7701126 24.222976 15.822899z" fill="#fb2d26"/></svg>

<?xml version="1.0" encoding="UTF-8" standalone="no"?>
<svg width="256px" height="230px" viewBox="0 0 256 230" version="1.1" xmlns="http://www.w3.org/2000/svg" xmlns:xlink="http://www.w3.org/1999/xlink" preserveAspectRatio="xMidYMid">
    <g>
        <path d="M251.220287,187.855608 C257.004771,197.90121 257.565256,208.46418 252.758026,216.813957 C247.957982,225.17092 238.56628,229.956592 226.990126,229.956592 L205.174358,229.956592 C205.433042,225.889489 205.6055,221.786458 205.6055,217.654683 C205.6055,213.027096 205.389928,208.456995 205.073758,203.901264 L219.423589,203.886893 C222.951766,203.886893 225.804487,201.0198 225.804487,197.48444 C225.804487,196.377842 225.524244,195.350288 225.035617,194.430519 L133.576099,35.4614019 C132.491059,33.52845 130.414393,32.2206537 128.035928,32.2206537 C125.722135,32.2206537 123.695768,33.4565931 122.5748,35.3105023 L108.052512,60.5538467 C152.187047,93.8236117 181.85678,145.366597 185.916697,203.886893 C186.232867,208.435438 186.448438,213.005539 186.448438,217.640312 C186.448438,221.772086 186.275981,225.867932 186.024482,229.94222 L114.778322,229.94222 C115.166349,225.889489 115.389106,221.793643 115.389106,217.640312 C115.389106,212.991168 115.11605,208.406694 114.613051,203.886893 C111.092061,171.680611 95.3266475,143.139032 72.1096689,122.997531 L62.1071823,140.37254 C79.6474624,156.698437 91.6188292,178.930976 94.8739488,203.886893 C95.4631757,208.392323 95.7937176,212.976796 95.7937176,217.640312 C95.7937176,221.793643 95.5206613,225.903861 95.0535911,229.94222 L29.009874,229.94222 C17.4337202,229.94222 8.0420177,225.149363 3.24197385,216.7924 C-1.5652557,208.442623 -1.00477154,197.886838 4.77971245,187.834051 L18.3391177,164.595516 C26.1140391,168.770404 33.098534,174.209975 39.0554747,180.648357 L30.9715685,194.416147 C30.490127,195.32873 30.2026993,196.36347 30.2026993,197.470068 C30.2026993,201.00543 33.0554199,203.865336 36.5835958,203.865336 L68.6174214,203.879707 C65.9299717,188.523879 58.8448771,174.669859 48.6986766,163.697304 C42.7201789,157.251736 35.7356839,151.797794 27.9607626,147.622905 L63.7311493,85.4738348 C71.3479853,89.7349516 78.5552368,94.6212238 85.2954181,100.096723 C116.122047,125.110125 136.939004,162.05178 140.711493,203.872521 L159.882926,203.872521 C155.973909,154.981057 131.406019,111.86689 94.9458057,83.3253122 C88.1122104,77.9791555 80.8762161,73.1359975 73.2737514,68.8676951 L103.805767,15.822899 C109.583065,5.7701126 118.42147,0 128.035928,0 C137.643202,0 146.47442,5.7701126 152.258904,15.822899 L251.220287,187.855608 L251.220287,187.855608 Z" fill="#FB2D26"></path>
    </g>
</svg>
